X:1150
T:Silver Reel, The
M:C|
L:1/8
C:Brian Duke
R:reel
D:Cian: Three Shouts from a Hill
Z:Devin McCabe
K:BMin
fecA ~B3f|fece faae|faec ~B3d|ceBc ABce|
!faec ~B3f|fece faaf|gf (3efg fede|edcd Bcde:|
!:~f3b baf~a-|a2bc' bafe|~f3b bafg|gfed e2de|
!~f3b baf~a-|a2bc' bafa|gf (3efg fede|edcd Bcde:|
